assets/img/svg/cashflow-icon.svg

<svg width="25" height="24" viewBox="0 0 25 24" fill="none" xmlns="http://www.w3.org/2000/svg">
<path d="M2.64911 15.75L22.1491 15.75C22.5633 15.75 22.8991 15.4142 22.8991 15V4.5C22.8991 4.08579 22.5633 3.75 22.1491 3.75L2.64911 3.75C2.2349 3.75 1.89911 4.08579 1.89911 4.5V15C1.89911 15.4142 2.2349 15.75 2.64911 15.75Z" stroke="#591567" stroke-width="1.53756" stroke-linejoin="round"/>
<path d="M4.89911 20.25H19.8991M3.39911 18H21.3991H3.39911Z" stroke="#591567" stroke-width="1.53756" stroke-linecap="round" stroke-linejoin="round"/>
<path d="M12.3991 13.5C14.4702 13.5 16.1491 11.8211 16.1491 9.75C16.1491 7.67893 14.4702 6 12.3991 6C10.328 6 8.64911 7.67893 8.64911 9.75C8.64911 11.8211 10.328 13.5 12.3991 13.5Z" stroke="#591567" stroke-width="1.53756" stroke-linecap="round" stroke-linejoin="round"/>
<path d="M1.89911 12C2.39157 12 2.8792 12.097 3.33417 12.2855C3.78914 12.4739 4.20254 12.7501 4.55076 13.0983C4.89898 13.4466 5.1752 13.86 5.36366 14.3149C5.55211 14.7699 5.64911 15.2575 5.64911 15.75M22.8991 7.5C21.9045 7.5 20.9507 7.10491 20.2475 6.40165C19.5442 5.69839 19.1491 4.74456 19.1491 3.75L22.8991 7.5ZM1.89911 7.5C2.39157 7.5 2.8792 7.403 3.33417 7.21455C3.78914 7.02609 4.20254 6.74987 4.55076 6.40165C4.89898 6.05343 5.1752 5.64003 5.36366 5.18506C5.55211 4.73009 5.64911 4.24246 5.64911 3.75L1.89911 7.5ZM22.8991 12C21.9045 12 20.9507 12.3951 20.2475 13.0983C19.5442 13.8016 19.1491 14.7554 19.1491 15.75L22.8991 12Z" stroke="#591567" stroke-width="1.53756" stroke-linecap="round" stroke-linejoin="round"/>
</svg>

<svg width="25" height="24" fill="none" xmlns="http://www.w3.org/2000/svg"><path d="M2.65 15.75h19.5a.75.75 0 00.75-.75V4.5a.75.75 0 00-.75-.75H2.65a.75.75 0 00-.75.75V15c0 .414.335.75.75.75z" stroke="#591567" stroke-width="1.538" stroke-linejoin="round"/><path d="M4.9 20.25h15M3.4 18h18-18zm9-4.5a3.75 3.75 0 100-7.5 3.75 3.75 0 000 7.5zM1.9 12a3.75 3.75 0 013.75 3.75M22.9 7.5a3.75 3.75 0 01-3.75-3.75L22.9 7.5zm-21 0a3.75 3.75 0 003.75-3.75L1.9 7.5zm21 4.5a3.75 3.75 0 00-3.75 3.75L22.9 12z" stroke="#591567" stroke-width="1.538" stroke-linecap="round" stroke-linejoin="round"/></svg>
